img/steps-icons/img3.svg

<svg width="66" height="53" viewBox="0 0 66 53" fill="none" xmlns="http://www.w3.org/2000/svg">
<path d="M9.50735 42.6948C7.48932 42.6948 5.84744 44.305 5.84744 46.2842C5.84744 48.2634 7.48919 49.8736 9.50735 49.8736C11.5255 49.8736 13.1674 48.2634 13.1674 46.2842C13.1674 44.305 11.5254 42.6948 9.50735 42.6948ZM9.50735 47.978C8.55551 47.978 7.78104 47.218 7.78104 46.2842C7.78104 45.3504 8.55551 44.5905 9.50735 44.5905C10.4593 44.5905 11.2338 45.3504 11.2338 46.2842C11.2338 47.218 10.4593 47.978 9.50735 47.978Z" fill="#0383FD"/>
<path d="M50.2281 49.8739C52.2461 49.8739 53.888 48.2637 53.888 46.2845C53.888 44.3053 52.2462 42.6951 50.2281 42.6951C48.2099 42.6951 46.568 44.3053 46.568 46.2845C46.568 48.2636 48.2099 49.8739 50.2281 49.8739ZM50.2281 44.5906C51.1799 44.5906 51.9544 45.3505 51.9544 46.2843C51.9544 47.2182 51.1799 47.9781 50.2281 47.9781C49.2761 47.9781 48.5016 47.2182 48.5016 46.2843C48.5016 45.3505 49.2761 44.5906 50.2281 44.5906Z" fill="#0383FD"/>
<path d="M13.7435 44.0776C13.5613 44.3201 13.5076 44.6332 13.5987 44.9209C13.7378 45.3605 13.8084 45.819 13.8084 46.2842C13.8084 46.7492 13.7378 47.208 13.5986 47.6475C13.5076 47.9352 13.5613 48.2482 13.7436 48.4907C13.9257 48.7333 14.2146 48.8765 14.5219 48.8765H45.2132C45.5205 48.8765 45.8094 48.7333 45.9916 48.4907C46.1738 48.2482 46.2276 47.9352 46.1366 47.6475C45.9974 47.2079 45.9267 46.7492 45.9267 46.2842C45.9267 45.819 45.9974 45.3603 46.1366 44.9209C46.2276 44.6333 46.1738 44.3201 45.9917 44.0776C45.8094 43.8351 45.5205 43.6919 45.2132 43.6919H14.5219C14.2149 43.6919 13.9257 43.8351 13.7435 44.0776ZM15.7044 45.5876H44.0312C44.006 45.8182 43.9933 46.0506 43.9933 46.2842C43.9933 46.5177 44.006 46.7501 44.0312 46.9808H15.7043C15.7294 46.7501 15.7422 46.5177 15.7422 46.2842C15.7422 46.0506 15.7295 45.8182 15.7044 45.5876Z" fill="#0383FD"/>
<path d="M25.8498 29.8152C25.3158 29.8152 24.883 30.2394 24.883 30.763C24.883 31.2866 25.3158 31.7109 25.8498 31.7109H28.0998C28.6338 31.7109 29.0665 31.2866 29.0665 30.763C29.0665 30.2394 28.6338 29.8152 28.0998 29.8152H25.8498Z" fill="#0383FD"/>
<path d="M5.50237 33.1994C5.86021 33.1994 6.20427 33.0036 6.37184 32.6672L8.65439 28.0847C8.88861 27.6143 8.68958 27.0467 8.20992 26.8171C7.73 26.5872 7.15108 26.7826 6.91699 27.2529L4.63444 31.8354C4.40022 32.3057 4.59925 32.8733 5.07891 33.1029C5.21543 33.1684 5.35993 33.1994 5.50237 33.1994Z" fill="#0383FD"/>
<path d="M10.0748 33.1994C10.4327 33.1994 10.7767 33.0037 10.9443 32.6672L13.227 28.0847C13.4612 27.6143 13.2623 27.0468 12.7825 26.8171C12.3024 26.5872 11.7237 26.7825 11.4896 27.2529L9.20689 31.8354C8.97266 32.3058 9.17157 32.8733 9.65135 33.103C9.788 33.1684 9.9325 33.1994 10.0748 33.1994Z" fill="#0383FD"/>
<path d="M14.6476 33.1994C15.0055 33.1994 15.3495 33.0037 15.5171 32.6672L17.7998 28.0847C18.034 27.6143 17.8351 27.0468 17.3553 26.8171C16.8754 26.5872 16.2966 26.7825 16.0624 27.2529L13.7797 31.8354C13.5455 32.3058 13.7444 32.8733 14.2242 33.103C14.3607 33.1684 14.5052 33.1994 14.6476 33.1994Z" fill="#0383FD"/>
<path d="M65.6468 27.7995L63.2647 22.3901C63.2525 22.3623 63.2388 22.3352 63.224 22.3088L59.1481 12.7623C58.942 12.2794 58.3752 12.0518 57.8832 12.254C57.3906 12.4561 57.1585 13.0114 57.3647 13.4942L61.1114 22.2695L59.8309 22.8121L51.2687 6.69563L51.0792 6.33887L49.9463 4.2061C49.9453 4.20408 49.9445 4.20193 49.9434 4.19991C49.9165 4.14872 49.8929 4.09666 49.872 4.04396C49.8652 4.02652 49.86 4.0087 49.8539 3.99113C49.8402 3.95258 49.8272 3.91391 49.8167 3.87461C49.8118 3.85603 49.8081 3.83733 49.8038 3.81862C49.7947 3.77818 49.7867 3.73761 49.7809 3.69654C49.7786 3.68036 49.7768 3.66419 49.7751 3.64789C49.7702 3.60239 49.7672 3.55651 49.7665 3.51039C49.7632 3.32107 49.7938 3.13049 49.8626 2.94547C50.0182 2.52779 50.3348 2.20464 50.754 2.03542C51.5619 1.70949 52.494 2.08749 52.8316 2.87799L55.8575 9.96518C56.0638 10.4482 56.6307 10.6758 57.1225 10.4735C57.615 10.2714 57.8472 9.71608 57.641 9.23332L54.615 2.146C53.8684 0.397174 51.8061 -0.438947 50.0181 0.282422C49.1039 0.651069 48.3852 1.38482 48.0461 2.29525C47.9811 2.46953 47.9314 2.64785 47.8962 2.82794L33.1943 8.75826C32.9437 8.72351 32.6881 8.7043 32.4278 8.7043H28.5143C27.1323 8.7043 26.008 9.80695 26.008 11.1622V15.2337H23.4122C22.1795 15.2337 21.1765 16.2171 21.1765 17.4262V22.8097C21.1765 22.9733 21.0409 23.1065 20.8743 23.1065H2.23575C1.00289 23.1067 0 24.0901 0 25.2991V27.5987C0 28.1223 0.432738 28.5465 0.966797 28.5465C1.50086 28.5465 1.93359 28.1223 1.93359 27.5987V25.2991C1.93359 25.1354 2.0692 25.0022 2.23575 25.0022H20.8744C22.1072 25.0022 23.1102 24.0187 23.1102 22.8097V17.4262C23.1102 17.2625 23.2458 17.1293 23.4123 17.1293H26.9749H36.9016H37.5687C37.71 17.1293 37.8362 17.2067 37.8983 17.3314L40.8376 23.2361C40.9216 23.405 40.966 23.5935 40.966 23.7813V35.2643C40.966 35.463 40.8015 35.6247 40.5992 35.6247H38.4017H20.2246H2.23575C2.0692 35.6247 1.93359 35.4915 1.93359 35.3279V31.4177C1.93359 30.8941 1.50086 30.4699 0.966797 30.4699C0.432738 30.4699 0 30.8941 0 31.4177V35.3279C0 36.5368 1.00289 37.5204 2.23575 37.5204H19.258V39.5912H8.59831C4.83489 39.5912 1.77298 42.593 1.77298 46.2855C1.77298 49.9752 4.83476 52.977 8.59831 52.977H51.1371C54.9005 52.977 57.9624 49.9753 57.9624 46.2826C57.9624 42.5931 54.9007 39.5912 51.1371 39.5912H39.3685V37.5204H40.5992C41.8676 37.5204 42.8996 36.5084 42.8996 35.2643V23.7813C42.8996 23.3071 42.7875 22.8312 42.5753 22.4048L39.636 16.5C39.2973 15.8195 38.6234 15.353 37.8684 15.2539V14.769L50.0048 8.42007L58.0509 23.5661L48.9751 27.4114C48.3607 27.6718 47.9757 28.241 47.9701 28.8973C47.9646 29.5436 48.3491 30.1332 48.95 30.3995L57.6881 34.2712C58.2495 34.52 58.8466 34.6462 59.4628 34.6462C60.0541 34.6462 60.6291 34.5295 61.1721 34.2996L63.3993 33.356C65.5808 32.4319 66.589 29.9391 65.6468 27.7995ZM21.1915 37.5205H37.4349V39.5914H21.1915V37.5205ZM51.137 41.4872C53.8342 41.4872 56.0289 43.6384 56.0289 46.2858C56.0289 48.9301 53.8345 51.0816 51.1371 51.0816H8.59831C5.90107 51.0816 3.70657 48.9303 3.70657 46.2829C3.70657 43.6385 5.90094 41.4872 8.59831 41.4872H20.2246H38.4016H51.137ZM35.9343 14.0404V14.2008V15.234H27.9417V11.1625C27.9417 10.8525 28.1986 10.6002 28.5145 10.6002H32.4279C32.6665 10.6002 32.8996 10.624 33.1249 10.6687C33.2126 10.686 33.2984 10.7075 33.3834 10.7312C33.4032 10.7367 33.4231 10.7419 33.4428 10.7477C33.5204 10.7707 33.5965 10.7966 33.6715 10.8246C33.697 10.834 33.7224 10.8439 33.7475 10.854C33.8183 10.8823 33.888 10.9123 33.9564 10.9449C33.9827 10.9574 34.0083 10.9709 34.0342 10.984C34.0904 11.0125 34.1456 11.0423 34.1999 11.0736C34.2312 11.0917 34.2621 11.1103 34.2928 11.1293C34.3455 11.1619 34.3972 11.1959 34.4479 11.2311C34.471 11.2472 34.4943 11.2627 34.5168 11.2793C34.5776 11.3236 34.6365 11.3703 34.6941 11.4183C34.7138 11.4347 34.7334 11.4513 34.7526 11.4681C34.812 11.5199 34.8699 11.5733 34.9255 11.629C34.9381 11.6416 34.9504 11.6546 34.9629 11.6675C35.0232 11.7297 35.0821 11.7932 35.1375 11.8597L35.1396 11.8622C35.2007 11.9355 35.2588 12.0114 35.3136 12.0895C35.3146 12.0909 35.3157 12.0924 35.3167 12.0938C35.3714 12.1717 35.4227 12.2521 35.4707 12.3345C35.4723 12.3372 35.4738 12.3397 35.4753 12.3422C35.6679 12.674 35.8049 13.039 35.8767 13.4238C35.8785 13.4336 35.8803 13.4435 35.8821 13.4535C35.8978 13.5425 35.9101 13.6324 35.9187 13.7233C35.9199 13.7354 35.9205 13.7476 35.9215 13.7598C35.9293 13.8525 35.9343 13.9461 35.9343 14.0404ZM37.6972 12.71C37.5071 11.9858 37.1643 11.3217 36.7064 10.7502C36.695 10.736 36.6838 10.7217 36.6722 10.7074C36.6377 10.6653 36.6027 10.624 36.5671 10.583C36.548 10.5611 36.5288 10.5393 36.5093 10.5177C36.478 10.4829 36.4466 10.4483 36.4145 10.4143C36.3871 10.3854 36.3592 10.3569 36.3312 10.3286C36.3046 10.3017 36.2782 10.2747 36.251 10.2483C36.2082 10.2066 36.1643 10.166 36.1201 10.1258C36.106 10.113 36.0925 10.0999 36.0783 10.0873C35.9621 9.98375 35.8415 9.8848 35.7162 9.79115L48.0966 4.79717C48.1 4.80526 48.1045 4.81297 48.1079 4.82106C48.1456 4.90927 48.1859 4.9966 48.2313 5.08191L49.1116 6.73898L37.6972 12.71ZM62.6322 31.6161L60.405 32.5598C59.7939 32.8185 59.0914 32.8129 58.4848 32.5442L50.2977 28.9167L59.6958 24.9349C59.7225 24.9261 59.7491 24.9169 59.7754 24.9058L61.8733 24.0136L63.8716 28.5511C64.3914 29.7311 63.8353 31.1062 62.6322 31.6161Z" fill="#0383FD"/>
<path d="M38.082 28.5519C38.7678 28.5519 39.3257 28.0047 39.3257 27.3323V24.0584C39.3257 23.8751 39.2825 23.6907 39.1996 23.5235L36.965 19.0344C36.758 18.6185 36.3192 18.3499 35.8473 18.3499H25.9718C25.286 18.3499 24.7281 18.8969 24.7281 19.5693V24.0287C24.7281 24.352 24.8625 24.6679 25.0977 24.8961L28.508 28.2001C28.7422 28.4269 29.0528 28.5519 29.382 28.5519H38.082ZM26.6617 23.7462V20.2454H35.4163L37.3921 24.2145V26.6561H29.6655L26.6617 23.7462Z" fill="#0383FD"/>
</svg>

<svg width="66" height="53" fill="none" xmlns="http://www.w3.org/2000/svg"><path d="M9.507 42.695c-2.018 0-3.66 1.61-3.66 3.59 0 1.978 1.642 3.589 3.66 3.589 2.018 0 3.66-1.61 3.66-3.59 0-1.979-1.642-3.59-3.66-3.59zm0 5.283c-.951 0-1.726-.76-1.726-1.694 0-.934.775-1.694 1.726-1.694.952 0 1.727.76 1.727 1.694 0 .934-.775 1.694-1.727 1.694zm40.721 1.896c2.018 0 3.66-1.61 3.66-3.59 0-1.979-1.642-3.589-3.66-3.589-2.018 0-3.66 1.61-3.66 3.59 0 1.979 1.642 3.589 3.66 3.589zm0-5.283c.952 0 1.726.76 1.726 1.693 0 .934-.774 1.694-1.726 1.694s-1.726-.76-1.726-1.694c0-.934.774-1.693 1.726-1.693zm-36.485-.513a.933.933 0 00-.144.843 4.512 4.512 0 010 2.727.933.933 0 00.145.843.973.973 0 00.778.386h30.691a.973.973 0 00.779-.386.933.933 0 00.145-.843 4.51 4.51 0 010-2.727.934.934 0 00-.145-.843.974.974 0 00-.779-.386H14.522a.974.974 0 00-.779.386zm1.961 1.51h28.327a6.41 6.41 0 000 1.393H15.704a6.439 6.439 0 000-1.393zM25.85 29.815a.957.957 0 00-.967.948c0 .524.433.948.967.948h2.25a.957.957 0 00.966-.948.957.957 0 00-.966-.948h-2.25zM5.502 33.2a.97.97 0 00.87-.533l2.282-4.582a.94.94 0 00-.444-1.268.975.975 0 00-1.293.436l-2.283 4.582a.94.94 0 00.445 1.268.977.977 0 00.423.096zm4.573 0a.969.969 0 00.87-.533l2.282-4.582a.94.94 0 00-.444-1.268.975.975 0 00-1.293.436l-2.283 4.582a.94.94 0 00.444 1.268.979.979 0 00.424.096zm4.573 0a.969.969 0 00.87-.533l2.282-4.582a.94.94 0 00-.445-1.268.975.975 0 00-1.293.436l-2.282 4.582a.94.94 0 00.444 1.268.978.978 0 00.424.096z" fill="#0383FD"/><path d="M65.647 27.8l-2.382-5.41a.934.934 0 00-.041-.081l-4.076-9.547a.974.974 0 00-1.265-.508.941.941 0 00-.518 1.24l3.746 8.776-1.28.542-8.562-16.116-.19-.357-1.133-2.133-.003-.006a1.613 1.613 0 01-.071-.156c-.007-.017-.012-.035-.018-.053a1.523 1.523 0 01-.037-.116l-.013-.056a1.531 1.531 0 01-.038-.309 1.561 1.561 0 01.987-1.475c.809-.326 1.741.052 2.079.843l3.026 7.087a.974.974 0 001.265.508.941.941 0 00.518-1.24l-3.026-7.087C53.868.397 51.806-.439 50.018.282a3.499 3.499 0 00-1.972 2.013 3.379 3.379 0 00-.15.533l-14.702 5.93a5.575 5.575 0 00-.766-.054h-3.914c-1.382 0-2.506 1.103-2.506 2.458v4.072h-2.596c-1.232 0-2.235.983-2.235 2.192v5.384a.3.3 0 01-.303.297H2.236C1.003 23.107 0 24.09 0 25.299v2.3c0 .523.433.948.967.948a.957.957 0 00.967-.948v-2.3a.3.3 0 01.302-.297h18.638c1.233 0 2.236-.983 2.236-2.192v-5.384a.3.3 0 01.302-.297H37.57c.141 0 .267.078.33.202l2.939 5.905c.084.169.128.357.128.545v11.483c0 .199-.165.36-.367.36H2.235a.3.3 0 01-.301-.296v-3.91a.957.957 0 00-.967-.948.957.957 0 00-.967.948v3.91c0 1.209 1.003 2.192 2.236 2.192h17.022v2.071H8.598c-3.763 0-6.825 3.002-6.825 6.694 0 3.69 3.062 6.692 6.825 6.692h42.54c3.763 0 6.824-3.002 6.824-6.694 0-3.69-3.061-6.692-6.825-6.692H39.368v-2.07H40.6c1.269 0 2.3-1.013 2.3-2.257V23.781c0-.474-.111-.95-.324-1.376l-2.94-5.905a2.314 2.314 0 00-1.768-1.246v-.485L50.005 8.42l8.046 15.146-9.076 3.845c-.614.26-1 .83-1.005 1.486a1.633 1.633 0 00.98 1.503l8.738 3.871a4.353 4.353 0 001.775.375 4.36 4.36 0 001.71-.346l2.226-.944c2.182-.924 3.19-3.417 2.248-5.557zM21.19 37.52h16.244v2.071H21.19v-2.07zm29.946 3.967c2.697 0 4.892 2.151 4.892 4.799 0 2.644-2.195 4.796-4.892 4.796H8.598c-2.697 0-4.891-2.152-4.891-4.8 0-2.643 2.194-4.795 4.891-4.795h42.539zM35.934 14.04v1.194h-7.992v-4.072c0-.31.257-.562.573-.562h3.913a3.58 3.58 0 01.955.131c.02.006.04.01.06.017a3.486 3.486 0 01.513.197c.027.012.052.026.078.039a3.514 3.514 0 01.414.247l.069.048a3.464 3.464 0 01.408.35l.038.039c.06.062.12.125.175.192l.002.002c.06.073.119.15.174.227 0 .002.002.003.003.005a3.375 3.375 0 01.158.248 3.394 3.394 0 01.444 1.381l.003.037a3.7 3.7 0 01.012.28zm1.763-1.33a5.279 5.279 0 00-.99-1.96l-.035-.043a5.703 5.703 0 00-.34-.378l-.081-.08a5.222 5.222 0 00-.13-.123l-.043-.039a5.436 5.436 0 00-.362-.296l12.38-4.994.012.024c.038.088.078.176.123.26l.88 1.658-11.414 5.971zm24.935 18.906l-2.227.944a2.43 2.43 0 01-1.92-.016l-8.187-3.627 9.398-3.982c.026-.009.053-.018.08-.03l2.097-.891 1.999 4.537c.52 1.18-.037 2.555-1.24 3.065z" fill="#0383FD"/><path d="M38.082 28.552c.686 0 1.244-.547 1.244-1.22v-3.274c0-.183-.044-.367-.126-.535l-2.235-4.489a1.254 1.254 0 00-1.118-.684h-9.875c-.686 0-1.244.547-1.244 1.22v4.459c0 .323.134.639.37.867l3.41 3.304c.234.227.545.352.874.352h8.7zm-11.42-4.806v-3.5h8.754l1.976 3.969v2.441h-7.727l-3.003-2.91z" fill="#0383FD"/></svg>
